assets/img/components/fileinput.svg

<svg width="272" height="143" viewBox="0 0 272 143" fill="none" xmlns="http://www.w3.org/2000/svg">
<rect width="272" height="143" rx="8" fill="#EDEDED"/>
<rect x="45.5469" y="23.2852" width="184.906" height="96.4297" rx="9" fill="#EFF6FB" stroke="#ABC4D8" stroke-width="2" stroke-linecap="round" stroke-linejoin="bevel" stroke-dasharray="3 5"/>
<path d="M78.8149 64.4105C78.8149 63.11 79.8692 62.0557 81.1698 62.0557H158.972C160.273 62.0557 161.327 63.11 161.327 64.4105V84.0856C161.327 85.3861 160.273 86.4404 158.972 86.4404H81.1698C79.8692 86.4404 78.8149 85.3861 78.8149 84.0856V64.4105Z" fill="#CDDDE9"/>
<path d="M145.336 76.4869H128.778C127.349 76.4869 126.397 75.484 126.397 73.9795C126.397 72.475 127.349 71.4749 128.778 71.4749H145.336C146.764 71.4749 147.716 72.475 147.716 73.9795C147.716 75.484 146.764 76.4869 145.336 76.4869Z" fill="#457AA5"/>
<path d="M120.246 76.4869H90.1418C88.7137 76.4869 87.7617 75.484 87.7617 73.9795C87.7617 72.475 88.7137 71.4749 90.1418 71.4749H120.246C121.674 71.4749 122.626 72.475 122.626 73.9795C122.626 75.484 121.674 76.4869 120.246 76.4869Z" fill="#457AA5"/>
<path d="M201.764 76.7333H171.66C170.232 76.7333 169.28 75.7387 169.28 74.2467C169.28 72.7546 170.232 71.7627 171.66 71.7627H201.764C203.192 71.7627 204.145 72.7546 204.145 74.2467C204.145 75.7387 203.192 76.7333 201.764 76.7333Z" fill="#CDDDE9"/>
</svg>

<svg xmlns="http://www.w3.org/2000/svg" width="272" height="143" fill="none" viewBox="0 0 272 143"><rect width="272" height="143" fill="#ededed" rx="8"/><rect width="184.906" height="96.43" x="45.547" y="23.285" fill="#eff6fb" stroke="#abc4d8" stroke-dasharray="3 5" stroke-linecap="round" stroke-linejoin="bevel" stroke-width="2" rx="9"/><path fill="#cddde9" d="M78.815 64.41c0-1.3 1.054-2.354 2.355-2.354h77.802a2.355 2.355 0 0 1 2.355 2.355v19.675c0 1.3-1.054 2.354-2.355 2.354H81.17a2.355 2.355 0 0 1-2.355-2.354z"/><path fill="#457aa5" d="M145.336 76.487h-16.558c-1.429 0-2.381-1.003-2.381-2.507s.952-2.505 2.381-2.505h16.558c1.428 0 2.38 1 2.38 2.505s-.952 2.507-2.38 2.507M120.246 76.487H90.142c-1.428 0-2.38-1.003-2.38-2.507s.952-2.505 2.38-2.505h30.104c1.428 0 2.38 1 2.38 2.505s-.952 2.507-2.38 2.507"/><path fill="#cddde9" d="M201.764 76.733H171.66c-1.428 0-2.38-.994-2.38-2.486s.952-2.484 2.38-2.484h30.104c1.428 0 2.381.992 2.381 2.484s-.953 2.486-2.381 2.486"/></svg>
